file/shell.svg

<svg clip-rule="evenodd" fill-rule="evenodd" stroke-linejoin="round" stroke-miterlimit="1.41421" viewBox="0 0 560 400" xmlns="http://www.w3.org/2000/svg"><g transform="matrix(.483079 0 0 .483079 108.492 -20.5971)"><path d="m355.025 715.371c-19.989 0-30.263-13.036-30.263-13.036-16.429-.714-144.822-.357-144.822-.357l-12.5-105.509s-79.08-55.741-85.508-62.169c-37.96-172.206 99.246-336.375 273.099-336.375s311.058 164.169 273.099 336.375c-6.429 6.428-85.509 62.169-85.509 62.169l-12.5 105.509s-128.393-.357-144.822.357c0 0-10.274 13.036-30.274 13.036z" fill="#ed1c24"/><path d="m355.211 554.911-12.131-304.561c-14.631-2.986-51.955.597-71.96 15.526l58.225 290.23-79.425-278.286c-19.04-.233-57.461 31.96-60.315 41.504l115.853 246.934-130.186-225.734c-12.839 4.777-40.907 56.433-36.428 62.435l145.115 177.631-149.295-151.684s-19.408 29.561-6.752 79.631l84.329 60.898 10.558 83.2h103.39s16.915 16.034 28.917 16.034c12.001 0 28.916-16.034 28.916-16.034h103.391l10.557-83.2 84.329-60.898c12.656-50.07-6.752-79.631-6.752-79.631l-149.295 151.684 145.115-177.631c4.479-6.002-23.589-57.658-36.428-62.435l-130.185 225.734 115.853-246.934c-2.854-9.544-41.275-41.737-60.316-41.504l-79.425 278.286 58.226-290.23c-20.006-14.929-57.33-18.512-71.961-15.526z" fill="#ffd500"/></g></svg>

<?xml version="1.0" encoding="UTF-8" standalone="no"?>
<!DOCTYPE svg PUBLIC "-//W3C//DTD SVG 1.1//EN" "http://www.w3.org/Graphics/SVG/1.1/DTD/svg11.dtd">
<svg width="100%" height="100%" viewBox="0 0 560 400" version="1.1" xmlns="http://www.w3.org/2000/svg" xmlns:xlink="http://www.w3.org/1999/xlink" xml:space="preserve" xmlns:serif="http://www.serif.com/" style="fill-rule:evenodd;clip-rule:evenodd;stroke-linejoin:round;stroke-miterlimit:1.41421;">
    <g transform="matrix(0.483079,0,0,0.483079,108.492,-20.5971)">
        <path id="Red-part" serif:id="Red part" d="M355.025,715.371C335.036,715.371 324.762,702.335 324.762,702.335C308.333,701.621 179.94,701.978 179.94,701.978L167.44,596.469C167.44,596.469 88.36,540.728 81.932,534.3C43.972,362.094 181.178,197.925 355.031,197.925C528.884,197.925 666.089,362.094 628.13,534.3C621.701,540.728 542.621,596.469 542.621,596.469L530.121,701.978C530.121,701.978 401.728,701.621 385.299,702.335C385.299,702.335 375.025,715.371 355.025,715.371Z" style="fill:rgb(237,28,36);"/>
        <path id="Yellow-part" serif:id="Yellow part" d="M355.211,554.911L343.08,250.35C328.449,247.364 291.125,250.947 271.12,265.876L329.345,556.106L249.92,277.82C230.88,277.587 192.459,309.78 189.605,319.324L305.458,566.258L175.272,340.524C162.433,345.301 134.365,396.957 138.844,402.959L283.959,580.59L134.664,428.906C134.664,428.906 115.256,458.467 127.912,508.537L212.241,569.435L222.799,652.635L326.189,652.635C326.189,652.635 343.104,668.669 355.106,668.669C367.107,668.669 384.022,652.635 384.022,652.635L487.413,652.635L497.97,569.435L582.299,508.537C594.955,458.467 575.547,428.906 575.547,428.906L426.252,580.59L571.367,402.959C575.846,396.957 547.778,345.301 534.939,340.524L404.754,566.258L520.607,319.324C517.753,309.78 479.332,277.587 460.291,277.82L380.866,556.106L439.092,265.876C419.086,250.947 381.762,247.364 367.131,250.35L355.211,554.911Z" style="fill:rgb(255,213,0);"/>
    </g>
</svg>
